X: 23298
T: Leddy From Cavan
R: reel
M: 4/4
K: Dmajor
DE|:=FEDF EDCE|Dddc defd|=c2 cB cAGE|=FEDF EDCE|
DE=FE DA,B,A,|FGAF G2 FG|Addc defd|1 =cAGE D2 EG:|2 =cAGE DEFA||
|:d2 fd Adfd|=c2 ec Gcec|d2 fd Adfa|gfge fddc|defd Adfd
cdef g2 fg|(3agf (3gfe A=cBd|1 cAGE DEFA:|2 cAGE D2 EG||

